X:1
T:Unnamed Reel 4
R:Reel
S:Guillaume Le Bigot (session au Oan's pub)
M:2/2
L:1/8
K:D
|: A2EA cdeg | dcBG AEGF | EAAA cdg2 | eaag a3g |
   eged cAAA | BGdc B2cB | ABce d2cd | edBA EAA2 :|
|: a2ea baea | gggg b2ag | aged cde2 | dcBA EAA2 |
   a2ea eaea | gedc B2cB | ABcd e2af | gfeg eAA2 :|
